apps/16/dropbox.svg

<?xml version="1.0" encoding="UTF-8" standalone="no"?>
<!-- Created with Inkscape (http://www.inkscape.org/) -->

<svg
   xmlns:dc="http://purl.org/dc/elements/1.1/"
   xmlns:cc="http://creativecommons.org/ns#"
   xmlns:rdf="http://www.w3.org/1999/02/22-rdf-syntax-ns#"
   xmlns:svg="http://www.w3.org/2000/svg"
   xmlns="http://www.w3.org/2000/svg"
   xmlns:sodipodi="http://sodipodi.sourceforge.net/DTD/sodipodi-0.dtd"
   xmlns:inkscape="http://www.inkscape.org/namespaces/inkscape"
   id="svg13094"
   height="16"
   width="16"
   version="1.1"
   inkscape:version="0.48.3.1 r9886"
   sodipodi:docname="dropbox.svg">
  <defs
     id="defs7" />
  <sodipodi:namedview
     pagecolor="#ffffff"
     bordercolor="#666666"
     borderopacity="1"
     objecttolerance="10"
     gridtolerance="10"
     guidetolerance="10"
     inkscape:pageopacity="0"
     inkscape:pageshadow="2"
     inkscape:window-width="1920"
     inkscape:window-height="1032"
     id="namedview5"
     showgrid="true"
     inkscape:zoom="41.7193"
     inkscape:cx="11.085807"
     inkscape:cy="7.2018809"
     inkscape:window-x="-7"
     inkscape:window-y="25"
     inkscape:window-maximized="1"
     inkscape:current-layer="svg13094"
     inkscape:snap-bbox="true"
     inkscape:bbox-paths="true"
     inkscape:bbox-nodes="true"
     inkscape:snap-bbox-edge-midpoints="true"
     inkscape:object-paths="true"
     inkscape:snap-bbox-midpoints="true"
     inkscape:snap-intersection-paths="true"
     inkscape:object-nodes="true"
     inkscape:snap-smooth-nodes="true"
     inkscape:snap-midpoints="true"
     inkscape:snap-object-midpoints="true"
     inkscape:snap-center="true"
     inkscape:snap-global="true">
    <inkscape:grid
       type="xygrid"
       id="grid2982" />
  </sodipodi:namedview>
  <metadata
     id="metadata13099">
    <rdf:RDF>
      <cc:Work
         rdf:about="">
        <dc:format>image/svg+xml</dc:format>
        <dc:type
           rdf:resource="http://purl.org/dc/dcmitype/StillImage" />
        <dc:title />
      </cc:Work>
    </rdf:RDF>
  </metadata>
  <path
     id="path2995"
     d="m 4.4994528,0.54368932 -3.50054721,2.97087378 3.50054721,3 L 8,3.5145631 4.4994528,0.54368932 z M 8,3.5145631 l 3.500547,3 3.500548,-3 L 11.500547,0.54368932 8,3.5145631 z m 3.500547,3 L 8,9.4854369 4.4994528,6.5145631 0.99890559,9.4854369 8,15.456311 15.001095,9.4854369 11.500547,6.5145631 z"
     style="fill:#27303a;fill-opacity:0.753280819999999968"
     inkscape:connector-curvature="0" />
  <path
     style="font-size:medium;font-style:normal;font-variant:normal;font-weight:normal;font-stretch:normal;text-indent:0;text-align:start;text-decoration:none;line-height:normal;letter-spacing:normal;word-spacing:normal;text-transform:none;direction:ltr;block-progression:tb;writing-mode:lr-tb;text-anchor:start;baseline-shift:baseline;color:#000000;fill:#f1f3f5;fill-opacity:0.90288714000000003;fill-rule:nonzero;stroke:none;stroke-width:2;marker:none;visibility:visible;display:inline;overflow:visible;enable-background:accumulate;font-family:Sans;-inkscape-font-specification:Sans"
     d="m 4.5,-0.90625 -0.71875,0.625 -3.5,2.96875 L -0.6875,3.5 0.28125,4.34375 2.8125,6.5 0.28125,8.65625 l -0.96875,0.8125 0.96875,0.84375 7,5.96875 0.71875,0.625 0.71875,-0.625 7,-5.96875 L 16.6875,9.46875 15.71875,8.65625 13.1875,6.5 15.71875,4.34375 16.6875,3.5 15.71875,2.6875 l -3.5,-2.96875 -0.71875,-0.625 -0.71875,0.625 L 8,2.0625 5.21875,-0.28125 z m 0,1.4375 L 8,3.5 11.5,0.53125 15,3.5 11.5,6.5 15,9.5 8,15.46875 1,9.5 4.5,6.5 1,3.5 z"
     id="path2986"
     inkscape:connector-curvature="0"
     sodipodi:nodetypes="cccccccccccccccccccccccccccccccccccc" />
</svg>

<?xml version="1.0" encoding="UTF-8"?>
<svg id="b" width="16" height="16" version="1.1" xmlns="http://www.w3.org/2000/svg" xmlns:cc="http://creativecommons.org/ns#" xmlns:dc="http://purl.org/dc/elements/1.1/" xmlns:rdf="http://www.w3.org/1999/02/22-rdf-syntax-ns#">
	<metadata id="d">
		<rdf:RDF>
			<cc:Work rdf:about="">
				<dc:format>image/svg+xml</dc:format>
				<dc:type rdf:resource="http://purl.org/dc/dcmitype/StillImage"/>
				<dc:title/>
			</cc:Work>
		</rdf:RDF>
	</metadata>
	<defs>
		<style id="current-color-scheme" type="text/css">.ColorScheme-Text {color:#090d11;}.ColorScheme-Background{color:#ffffff;}</style>
	</defs>
	<path id="c" d="m4.4995 0.54369-3.5005 2.9709 3.5005 3 3.5005-3zm3.5005 2.9709 3.5005 3 3.5005-3-3.5005-2.9709zm3.5005 3-3.5005 2.9709-3.5005-2.9709-3.5005 2.9709 7.0011 5.9709 7.0011-5.9709z" style="fill:currentColor;fill-opacity:0.75;" class="ColorScheme-Text"/>
	<path id="a" d="m4.5-0.90625-0.71875 0.625-3.5 2.9688-0.96875 0.8125 0.96875 0.84375 2.5312 2.1562-2.5312 2.1562-0.96875 0.8125 0.96875 0.84375 7 5.9688 0.71875 0.625 0.71875-0.625 7-5.9688 0.96875-0.84375-0.96875-0.8125-2.5312-2.1562 2.5312-2.1562 0.96875-0.84375-0.96875-0.8125-3.5-2.9688-0.71875-0.625-0.71875 0.625-2.7812 2.3438-2.7812-2.3438zm0 1.4375 3.5 2.9688 3.5-2.9688 3.5 2.9688-3.5 3 3.5 3-7 5.9688-7-5.9688 3.5-3-3.5-3z" style="fill:currentColor;fill-opacity:0.5;" class="ColorScheme-Background"/>
</svg>
